X:1596
T:Doolin No 1
O:england
R:double jig
M:6/8
L:1/8
K:D
D2D FEF|DFA dAF|E2E GFE|DFA dAF|
D2D FEF|DFA dAF|E2E GFE|FDD D3:|
DFA|ddd cec|dAF DFA|dcB cBA|BBB B2c|
ddd cec|dAF DFE|G2A GFE|FDD D3:|
DFA d2d|BAG GFE|DFA ded|cec d2e|
fdf ece|dBd cAc|BAG ABc|cdd dAF:|


